src/images/guard/lock.svg

<svg fill="none" height="47" viewBox="0 0 47 47" width="47" xmlns="http://www.w3.org/2000/svg" xmlns:xlink="http://www.w3.org/1999/xlink"><linearGradient id="a" gradientUnits="userSpaceOnUse" x1="23.934" x2="22.8552" y1="7.77921" y2="38.6726"><stop offset="0"/><stop offset="1" stop-color="#3a3a3a"/></linearGradient><path d="m31.7287 22.3739 2.8872.1008c.3874.0136.6773.3688.6638.7563l-.5296 15.1668c-.0136.3874-.3261.6788-.7135.6653l-22.3628-.7809c-.3874-.0136-.6788-.3261-.6653-.7135l.5296-15.1668c.0136-.3875.3275-.7216.715-.7081l2.8003.0978.2468-7.0664c.1384-3.964 2.7953-7.14988 6.7166-7.01294l3.7062.12942c3.9641.13843 6.3922 3.50182 6.2538 7.46592l-.2468 7.0664zm-13.0118-.4544 9.3938.3281.2347-6.7217c.0768-2.1978-1.6689-4.1141-3.9094-4.1924l-1.3361-.0466c-2.1978-.0768-4.0715 1.7132-4.1483 3.911zm2.2877 12.2889 4.0068.1399-.8394-4.3861c.7014-.3206 1.2013-1.0362 1.2299-1.8552.0436-1.2492-.9146-2.2324-2.1211-2.2746-1.2064-.0421-2.1882.8734-2.2318 2.1226-.0286.819.4201 1.5677 1.0975 1.9365z" fill="url(#a)" opacity=".8"/></svg>

<svg width="47" height="47" viewBox="0 0 47 47" fill="none" xmlns="http://www.w3.org/2000/svg">
<g id="lock-svgrepo-com (6) 1" opacity="0.8">
<path id="Vector" d="M31.7287 22.3739L34.6159 22.4747C35.0033 22.4883 35.2932 22.8435 35.2797 23.231L34.7501 38.3978C34.7365 38.7852 34.424 39.0766 34.0366 39.0631L11.6738 38.2822C11.2864 38.2686 10.995 37.9561 11.0085 37.5687L11.5381 22.4019C11.5517 22.0144 11.8656 21.6803 12.2531 21.6938L15.0534 21.7916L15.3002 14.7252C15.4386 10.7612 18.0955 7.57532 22.0168 7.71226L25.723 7.84168C29.6871 7.98011 32.1152 11.3435 31.9768 15.3076L31.73 22.374L31.7287 22.3739ZM18.7169 21.9195L28.1107 22.2476L28.3454 15.5259C28.4222 13.3281 26.6765 11.4118 24.436 11.3335L23.0999 11.2869C20.9021 11.2101 19.0284 13.0001 18.9516 15.1979L18.7169 21.9195ZM21.0046 34.2084L25.0114 34.3483L24.172 29.9622C24.8734 29.6416 25.3733 28.926 25.4019 28.107C25.4455 26.8578 24.4873 25.8746 23.2808 25.8324C22.0744 25.7903 21.0926 26.7058 21.049 27.955C21.0204 28.774 21.4691 29.5227 22.1465 29.8915L21.0046 34.2084Z" fill="url(#paint0_linear_24_1636)"/>
</g>
<defs>
<linearGradient id="paint0_linear_24_1636" x1="23.934" y1="7.77921" x2="22.8552" y2="38.6726" gradientUnits="userSpaceOnUse">
<stop/>
<stop offset="1" stop-color="#3A3A3A"/>
</linearGradient>
</defs>
</svg>
